X:1
T:Title
%%score 1 { 2 | 3 }
L:1/8
Q:1/4=107
M:4/4
K:Bb
V:1 treble nm="Grand Piano, Soprano"
V:2 bass nm="Choir Pad, Côte d’Ivoire, Sweney"
V:3 bass 
V:1
 [DB][Ec] [Fd]2- [Fd][Fd][Fd][Ec] | [DB][Fd] [Ec]2- [Ec][DB] [FA]2 | [FB]2 [Fc]2- [Fc][Fd] [Fe]2 | %3
w: By~John~Robson~Sweney,~1885 * * * * * *|||
 [EA]2 [DB]6 | [DB][Ec] [Fd]2- [Fd][Fd][Fd][Ec] | [DB][Fd] [Ec]2- [Ec][DB] [FA]2 | %6
w: |||
 [FB]2 [Fc]2- [Fc][Fe] [Fd]2 | [Ec]2 [DB]6 | [FB]2 [GB]2- [GB][^FA] [GB]2 | %9
w: |||
 [EG]2 [DF]2- [DF]D [DF]2 | [Fd]2 [=Ed]2- [Ed][Ec] [EB]2 | [=EG]2 [_Ec]6 | %12
w: |||
 [DB][Ec] [Fd]2- [Fd][Fd][Fd][Ec] | [DB][Fd] [Ec]2- [Ec][DB] [FA]2 | [FB]2 [Fc]2- [Fc][Fe] [Fd]2 | %15
w: |||
 [Ec]2 [DB]6- | [DB]2 z2 z4 |] %17
w: ||
V:2
 F,2 B,2- B,B, B,2 | B,2 A,2- A,B,[K:treble] C2 | D2 E2- EB,[K:bass] A,2 | C2 B,6 | %4
 F,2 B,2- B,B, B,2 | B,2 A,2- A,B,[K:treble] C2 | D2 E2- EC B,2 | A,2 B,6 | D2 E2- EE E2 | %9
 B,2 B,2- B,F, B,2 | B,2[K:treble] C2- CC C2 | B,2[K:bass] A,6 | F,2 B,2- B,B, B,2 | %13
 B,2 A,2- A,B,[K:treble] C2 | D2 E2- EC[K:bass] B,2 | A,2 B,6- | B,2 z2 z4 |] %17
V:3
 B,,2 B,,2- B,,B,, B,,2 | B,,2 F,2- F,F, F,2 | F,2 F,2- F,F, F,2 | F,2 B,,6 | %4
 B,,2 B,,2- B,,B,, B,,2 | B,,2 F,2- F,F, F,2 | F,2 F,2- F,F, F,2 | F,2 B,,6 | B,,2 E,2- E,E, E,2 | %9
 E,2 B,,2- B,,B,, B,,2 | z2 G,2- G,G, G,2 | G,2 F,6 | B,,2 B,,2- B,,B,, B,,2 | B,,2 F,2- F,F, F,2 | %14
 F,2 F,2- F,F, F,2 | F,2 B,,6- | B,,2 z2 z4 |] %17

